X:1133
T:The Witches
C:John Playford, 1675
L:1/8
M:6/8
R:Jig
S:Colin Hume's website,  colinhume.com  - chords can also be printed below the stave.
Q:3/8=110
%%MIDI chordname dim 0 3 6 9
K:Dm
P:A
[| c | "Dm"d3/e/f f2e | "/"f3 A3/B/c | "Gm"Ld3 LG3 | "C"LC3- C2c | "Bb"d3/e/d c2d | "Dm"B2AA,2e | "Gm"f3/e/d "A7"d2^c | "Dm"d3-d2 |]
P:B
|: g/f/ | "C"e3/d/c c2=B | "Am"c3 A2f | "Gm"Lg3 Lb3 | "C"Lc3- c2c | "Dm"d3/e/d "C"c2d | "Dm"B2AA,2e | "Gm"f3/e/d "A7"d2^c | "Dm"d3-d2 :|

